papirus/32x32/apps/screencloud.svg

<svg height="32" width="32" xmlns="http://www.w3.org/2000/svg"><path d="m13.954545 4a10.227273 10 0 0 0 -10.2272723 10 10.227273 10 0 0 0  .3422408 2.544271c-1.8183537.873199-3.0695135 2.712625-3.0695135 4.85677v1.197917c0 2.991928 2.4305247 5.401042 5.4492187 5.401042h19.1015623c3.018695 0 5.449219-2.409114 5.449219-5.401042v-1.197917c0-2.267259-1.396808-4.196961-3.386453-5a6.1363636 5.9999999 0 0 0 1.340998-3.734375 6.1363636 5.9999999 0 0 0 -6.136363-5.9999994 6.1363636 5.9999999 0 0 0 -1.67658.2304687 10.227273 10 0 0 0 -7.187057-2.8971353z" fill="#569cde"/><path d="m16 10a8.0000001 8 0 0 0 -8 8 8.0000001 8 0 0 0  8 8 8.0000001 8 0 0 0  8-8 8.0000001 8 0 0 0 -8-8zm0 2a6 5.9999999 0 0 1 6 6 6 5.9999999 0 0 1 -6 6 6 5.9999999 0 0 1 -6-6 6 5.9999999 0 0 1  6-6z" opacity=".2"/><path d="m16 9a8.0000001 8 0 0 0 -8 8 8.0000001 8 0 0 0  8 8 8.0000001 8 0 0 0  8-8 8.0000001 8 0 0 0 -8-8zm0 2a6 5.9999999 0 0 1 6 6 6 5.9999999 0 0 1 -6 6 6 5.9999999 0 0 1 -6-6 6 5.9999999 0 0 1  6-6z" fill="#aaceee"/><path d="m16 14a4.0000001 4.0000001 0 0 0 -4 4 4.0000001 4.0000001 0 0 0  4 4 4.0000001 4.0000001 0 0 0  4-4 4.0000001 4.0000001 0 0 0 -4-4z" opacity=".2"/><path d="m16 13a4.0000001 4.0000001 0 0 0 -4 4 4.0000001 4.0000001 0 0 0  4 4 4.0000001 4.0000001 0 0 0  4-4 4.0000001 4.0000001 0 0 0 -4-4z" fill="#fff"/><circle cx="9.5" cy="9.5" opacity=".2" r="1.5"/><circle cx="9.5" cy="8.5" fill="#fff" r="1.5"/><path d="m13.955078 4a10.227273 10 0 0 0 -10.2285155 10 10.227273 10 0 0 0  .0214844.396484 10.227273 10 0 0 1  10.2070311-9.396484 10.227273 10 0 0 1  7.1875 2.8964844 6.1363636 5.9999999 0 0 1  1.675781-.2304688 6.1363636 5.9999999 0 0 1  6.111329 5.5000004 6.1363636 5.9999999 0 0 0  .02539-.5 6.1363636 5.9999999 0 0 0 -6.136719-6.0000004 6.1363636 5.9999999 0 0 0 -1.675781.2304688 10.227273 10 0 0 0 -7.1875-2.8964844zm-10.0722655 12.650391c-1.7134024.907781-2.8828125 2.682506-2.8828125 4.75v1c0-2.144145 1.2519588-3.98227 3.0703125-4.855469a10.227273 10 0 0 1 -.1875-.894531zm24.2441405.003906a6.1363636 5.9999999 0 0 1 -.513672.746094c1.989645.803039 3.386719 2.732741 3.386719 5v-1c0-2.064074-1.16432-3.836951-2.873047-4.746094z" fill="#fff" opacity=".2"/><path d="m28.929688 12.166016a6.1363636 5.9999999 0 0 1 -1.316407 3.234375c.178306.071966.345467.164411.513672.253906a6.1363636 5.9999999 0 0 0  .828125-2.988281 6.1363636 5.9999999 0 0 0 -.02539-.5zm-25.1816411 1.230468a10.227273 10 0 0 0 -.0214844.603516 10.227273 10 0 0 0  .15625 1.650391c.0635237-.033656.1224953-.074253.1875-.105469a10.227273 10 0 0 1 -.3222656-2.148438zm-2.7480469 8.203125v1c0 2.991928 2.4305247 5.400391 5.4492188 5.400391h19.1015622c3.018695 0 5.449219-2.408463 5.449219-5.400391v-1c0 2.991928-2.430524 5.400391-5.449219 5.400391h-19.1015622c-3.0186941 0-5.4492188-2.408463-5.4492188-5.400391z" opacity=".3"/></svg>

<?xml version="1.0" encoding="UTF-8" standalone="no"?>
<!-- Created with Inkscape (http://www.inkscape.org/) -->

<svg
   xmlns:dc="http://purl.org/dc/elements/1.1/"
   xmlns:cc="http://creativecommons.org/ns#"
   xmlns:rdf="http://www.w3.org/1999/02/22-rdf-syntax-ns#"
   xmlns:svg="http://www.w3.org/2000/svg"
   xmlns="http://www.w3.org/2000/svg"
   xmlns:sodipodi="http://sodipodi.sourceforge.net/DTD/sodipodi-0.dtd"
   xmlns:inkscape="http://www.inkscape.org/namespaces/inkscape"
   id="svg2817"
   height="32"
   width="32"
   version="1.0"
   inkscape:version="0.91 r13725"
   sodipodi:docname="screencloud.svg">
  <defs
     id="defs13" />
  <sodipodi:namedview
     pagecolor="#3a3a3a"
     bordercolor="#666666"
     borderopacity="1"
     objecttolerance="10"
     gridtolerance="10"
     guidetolerance="10"
     inkscape:pageopacity="0"
     inkscape:pageshadow="2"
     inkscape:window-width="1600"
     inkscape:window-height="849"
     id="namedview11"
     showgrid="false"
     inkscape:zoom="1"
     inkscape:cx="13.174455"
     inkscape:cy="10.695844"
     inkscape:window-x="0"
     inkscape:window-y="0"
     inkscape:window-maximized="1"
     inkscape:current-layer="svg2817"
     showborder="false" />
  <metadata
     id="metadata57">
    <rdf:RDF>
      <cc:Work
         rdf:about="">
        <dc:format>image/svg+xml</dc:format>
        <dc:type
           rdf:resource="http://purl.org/dc/dcmitype/StillImage" />
        <dc:title></dc:title>
      </cc:Work>
    </rdf:RDF>
  </metadata>
  <path
     style="opacity:1;fill:#569cde;fill-opacity:1;stroke:none;stroke-width:2;stroke-linecap:round;stroke-linejoin:round;stroke-miterlimit:4;stroke-dasharray:none;stroke-opacity:1"
     d="M 13.954545,4 A 10.227273,10 0 0 0 3.7272727,14 10.227273,10 0 0 0 4.0695135,16.544271 C 2.2511598,17.41747 1,19.256896 1,21.401041 l 0,1.197917 C 1,25.590886 3.4305247,28 6.4492187,28 L 25.550781,28 C 28.569476,28 31,25.590886 31,22.598958 l 0,-1.197917 c 0,-2.267259 -1.396808,-4.196961 -3.386453,-5 A 6.1363636,5.9999999 0 0 0 28.954545,12.666666 6.1363636,5.9999999 0 0 0 22.818182,6.6666666 6.1363636,5.9999999 0 0 0 21.141602,6.8971353 10.227273,10 0 0 0 13.954545,4 Z"
     id="rect4141"
     inkscape:connector-curvature="0" />
  <path
     id="path4326"
     d="m 16,10 a 8.0000001,8 0 0 0 -8,8 8.0000001,8 0 0 0 8,8 8.0000001,8 0 0 0 8,-8 8.0000001,8 0 0 0 -8,-8 z m 0,2 a 6,5.9999999 0 0 1 6,6 6,5.9999999 0 0 1 -6,6 6,5.9999999 0 0 1 -6,-6 6,5.9999999 0 0 1 6,-6 z"
     style="opacity:0.2;fill:#000000;fill-opacity:1;stroke:none;stroke-width:2;stroke-linecap:round;stroke-linejoin:round;stroke-miterlimit:4;stroke-dasharray:none;stroke-opacity:1"
     inkscape:connector-curvature="0" />
  <path
     style="opacity:1;fill:#aaceee;fill-opacity:1;stroke:none;stroke-width:2;stroke-linecap:round;stroke-linejoin:round;stroke-miterlimit:4;stroke-dasharray:none;stroke-opacity:1"
     d="M 16 9 A 8.0000001 8 0 0 0 8 17 A 8.0000001 8 0 0 0 16 25 A 8.0000001 8 0 0 0 24 17 A 8.0000001 8 0 0 0 16 9 z M 16 11 A 6 5.9999999 0 0 1 22 17 A 6 5.9999999 0 0 1 16 23 A 6 5.9999999 0 0 1 10 17 A 6 5.9999999 0 0 1 16 11 z "
     id="path4313" />
  <path
     id="path4328"
     d="m 16,14 a 4.0000001,4.0000001 0 0 0 -4,4 4.0000001,4.0000001 0 0 0 4,4 4.0000001,4.0000001 0 0 0 4,-4 4.0000001,4.0000001 0 0 0 -4,-4 z"
     style="opacity:0.2;fill:#000000;fill-opacity:1;stroke:none;stroke-width:2;stroke-linecap:round;stroke-linejoin:round;stroke-miterlimit:4;stroke-dasharray:none;stroke-opacity:1"
     inkscape:connector-curvature="0" />
  <path
     inkscape:connector-curvature="0"
     style="opacity:1;fill:#ffffff;fill-opacity:1;stroke:none;stroke-width:2;stroke-linecap:round;stroke-linejoin:round;stroke-miterlimit:4;stroke-dasharray:none;stroke-opacity:1"
     d="m 16,13 a 4.0000001,4.0000001 0 0 0 -4,4 4.0000001,4.0000001 0 0 0 4,4 4.0000001,4.0000001 0 0 0 4,-4 4.0000001,4.0000001 0 0 0 -4,-4 z"
     id="path4139" />
  <circle
     r="1.5"
     cy="9.5"
     cx="9.5"
     id="circle4330"
     style="opacity:0.2;fill:#000000;fill-opacity:1;stroke:none;stroke-width:2;stroke-linecap:round;stroke-linejoin:round;stroke-miterlimit:4;stroke-dasharray:none;stroke-opacity:1" />
  <circle
     style="opacity:1;fill:#ffffff;fill-opacity:1;stroke:none;stroke-width:2;stroke-linecap:round;stroke-linejoin:round;stroke-miterlimit:4;stroke-dasharray:none;stroke-opacity:1"
     id="path4161"
     cx="9.5"
     cy="8.5"
     r="1.5" />
  <path
     style="opacity:0.2;fill:#ffffff;fill-opacity:1;stroke:none;stroke-width:2;stroke-linecap:round;stroke-linejoin:round;stroke-miterlimit:4;stroke-dasharray:none;stroke-opacity:1"
     d="M 13.955078 4 A 10.227273 10 0 0 0 3.7265625 14 A 10.227273 10 0 0 0 3.7480469 14.396484 A 10.227273 10 0 0 1 13.955078 5 A 10.227273 10 0 0 1 21.142578 7.8964844 A 6.1363636 5.9999999 0 0 1 22.818359 7.6660156 A 6.1363636 5.9999999 0 0 1 28.929688 13.166016 A 6.1363636 5.9999999 0 0 0 28.955078 12.666016 A 6.1363636 5.9999999 0 0 0 22.818359 6.6660156 A 6.1363636 5.9999999 0 0 0 21.142578 6.8964844 A 10.227273 10 0 0 0 13.955078 4 z M 3.8828125 16.650391 C 2.1694101 17.558172 1 19.332897 1 21.400391 L 1 22.400391 C 1 20.256246 2.2519588 18.418121 4.0703125 17.544922 A 10.227273 10 0 0 1 3.8828125 16.650391 z M 28.126953 16.654297 A 6.1363636 5.9999999 0 0 1 27.613281 17.400391 C 29.602926 18.20343 31 20.133132 31 22.400391 L 31 21.400391 C 31 19.336317 29.83568 17.56344 28.126953 16.654297 z "
     id="path4316" />
  <path
     style="opacity:0.3;fill:#000000;fill-opacity:1;stroke:none;stroke-width:2;stroke-linecap:round;stroke-linejoin:round;stroke-miterlimit:4;stroke-dasharray:none;stroke-opacity:1"
     d="M 28.929688 12.166016 A 6.1363636 5.9999999 0 0 1 27.613281 15.400391 C 27.791587 15.472357 27.958748 15.564802 28.126953 15.654297 A 6.1363636 5.9999999 0 0 0 28.955078 12.666016 A 6.1363636 5.9999999 0 0 0 28.929688 12.166016 z M 3.7480469 13.396484 A 10.227273 10 0 0 0 3.7265625 14 A 10.227273 10 0 0 0 3.8828125 15.650391 C 3.9463362 15.616735 4.0053078 15.576138 4.0703125 15.544922 A 10.227273 10 0 0 1 3.7480469 13.396484 z M 1 21.599609 L 1 22.599609 C 1 25.591537 3.4305247 28 6.4492188 28 L 25.550781 28 C 28.569476 28 31 25.591537 31 22.599609 L 31 21.599609 C 31 24.591537 28.569476 27 25.550781 27 L 6.4492188 27 C 3.4305247 27 1 24.591537 1 21.599609 z "
     id="path4321" />
</svg>
